src/pos-icons/pipe-disconnected.svg

<svg height="24" viewBox="0 0 24 24" width="24" xmlns="http://www.w3.org/2000/svg"><path d="m16 9v2h-8v-2h2v-1h-6v2h-2v-8h2v2h8a2 2 0 0 1 2 2v3zm-6 6v3a2 2 0 0 0 2 2h8v2h2v-8h-2v2h-6v-1h2v-2h-8v2z"/></svg>

<?xml version="1.0" encoding="UTF-8"?><!DOCTYPE svg PUBLIC "-//W3C//DTD SVG 1.1//EN" "http://www.w3.org/Graphics/SVG/1.1/DTD/svg11.dtd"><svg xmlns="http://www.w3.org/2000/svg" xmlns:xlink="http://www.w3.org/1999/xlink" version="1.1" id="mdi-pipe-disconnected" width="24" height="24" viewBox="0 0 24 24"><path d="M16,9V11H8V9H10V8H4V10H2V2H4V4H12A2,2 0 0,1 14,6V9H16M10,15V18A2,2 0 0,0 12,20H20V22H22V14H20V16H14V15H16V13H8V15H10Z" /></svg>
